svg/white/nexo.svg

<svg width="32" height="32" viewBox="0 0 32 32" version="1.1" xmlns="http://www.w3.org/2000/svg" xmlns:xlink="http://www.w3.org/1999/xlink"><title>svg/white/nexo</title><desc>Created with Sketch.</desc><g id="white/nexo" stroke="none" stroke-width="1" fill="none" fill-rule="evenodd"><path d="M5,10.1592 L10.4846,13.3074 L10.4846,13.318839 L21.4076,19.6293527 L21.4076,13.3162 L15.9406,10.1592 L21.4076,13.3162 L21.4076,13.3162 L10.676,7.1254 L10.6848,7.1254 C10.5547897,7.0503385 10.3946103,7.0503385 10.2646,7.1254 L5,10.1592 Z M10.4846,13.3265602 L10.4846,19.6460221 L21.1964,25.8254 C21.3274177,25.8966027 21.4855823,25.8966027 21.6166,25.8254 L26.8812,22.7916 L23.8880948,21.0624018 L21.4076,19.6346 L21.4076,19.6293527 L21.4076,19.6293527 L21.4076,19.6346 L10.4846,13.3265602 Z M23.8880948,21.0624018 L26.8922,22.7916 L26.8922,10.4034 C26.891453,10.2499496 26.8071172,10.1091089 26.6722,10.036 L21.4076,7 L21.4076,19.6293527 L23.8880948,21.0624018 Z M16,32 C7.163444,32 0,24.836556 0,16 C0,7.163444 7.163444,0 16,0 C24.836556,0 32,7.163444 32,16 C32,24.836556 24.836556,32 16,32 Z M5,10.1592 L5,22.5474 C5.000747,22.7008504 5.08508275,22.8416911 5.22,22.9148 L10.4846,25.9508 L10.4846,19.6460221 L10.4648,19.6346 L10.4648,13.3151257 L10.4846,13.3265602 L10.4846,13.318839 L10.4648,13.3074 L10.4648,13.3151257 L5,10.1592 Z" id="Combined-Shape" fill="#FFF" fill-rule="nonzero"/></g></svg>

<svg width="32" height="32" viewBox="0 0 32 32" xmlns="http://www.w3.org/2000/svg"><path d="M5 10.16l5.485 3.147v.012l10.923 6.31v-6.313L15.94 10.16l5.467 3.157-10.732-6.19h.009a.42.42 0 0 0-.42 0L5 10.158zm5.485 3.167v6.319l10.711 6.18a.44.44 0 0 0 .42 0l5.265-3.034-2.993-1.73-2.48-1.427v-.006.006l-10.923-6.308zm13.403 7.735l3.004 1.73V10.403a.42.42 0 0 0-.22-.367L21.408 7v12.63l2.48 1.432zM16 32C7.163 32 0 24.837 0 16S7.163 0 16 0s16 7.163 16 16-7.163 16-16 16zM5 10.16v12.387a.42.42 0 0 0 .22.368l5.265 3.036v-6.305l-.02-.011v-6.32l.02.012v-.008l-.02-.012v.008L5 10.16z" fill="#FFF"/></svg>
